frontend/public/svg/interface/question.svg

<svg width="86" height="124" viewBox="0 0 86 124" fill="none" xmlns="http://www.w3.org/2000/svg">
<g clip-path="url(#clip0)">
<path d="M66.9413 6.80024C59.1446 2.43766 50.3245 0.277133 41.4114 0.546415C33.6617 0.308912 25.9438 1.64708 18.7181 4.48125C12.0212 7.16705 7.11762 10.8027 3.73179 15.5952C2.58277 17.3085 1.79652 19.2423 1.42204 21.2758C0.97128 23.5617 1.7923 25.2296 3.67583 25.8522C5.85814 26.5728 7.23824 25.1582 8.4057 23.5228L8.82169 22.9385C10.1179 21.1077 11.4584 19.2152 13.1488 17.9545C15.7556 16.0268 18.6039 14.4551 21.6193 13.2801C28.0755 10.7638 35.2167 9.95614 44.0928 10.7417C50.2398 11.2857 55.4312 12.7133 59.9633 15.1056C66.4404 18.5244 70.5686 22.8625 72.5848 28.3679C75.4394 36.1682 73.865 42.4267 67.9047 46.9699C64.5038 49.4399 60.9478 51.6851 57.2593 53.6917L57.0866 53.7904C55.3042 54.811 53.4087 55.7231 51.5754 56.6054C50.2875 57.2254 48.9544 57.8675 47.6633 58.5446C38.7931 63.1962 32.6943 69.339 29.0187 77.3231C28.0815 79.2688 27.4163 81.3352 27.0419 83.4647C26.7751 85.0929 26.8451 86.7588 27.2472 88.3584C27.6494 89.9574 28.3749 91.4558 29.3787 92.7595C30.3774 94.0916 31.4057 94.378 32.0928 94.3825H32.1129C32.5959 94.363 33.0677 94.2306 33.4907 93.9943C33.9137 93.7586 34.276 93.4262 34.5487 93.0237C35.0787 92.3394 35.6177 91.6603 36.1586 90.9819C37.5836 89.1849 39.0565 87.3268 40.3515 85.3785C44.398 79.2837 49.9011 74.3075 57.6696 69.7175C62.4729 66.9668 67.1332 63.9695 71.6324 60.7377C74.789 58.4139 77.6243 55.6764 80.0629 52.5972C85.1732 46.0616 86.8635 38.6007 85.0863 30.4212C82.8833 20.3058 76.7788 12.3601 66.9413 6.80024Z" fill="black"/>
<path d="M30.0332 123.356C30.5839 123.438 31.1398 123.48 31.6965 123.479C34.3927 123.446 37.0093 122.554 39.1723 120.931C41.3352 119.308 42.9333 117.037 43.738 114.442C44.2238 112.472 44.2537 110.416 43.8254 108.432C43.3971 106.449 42.5221 104.591 41.2679 103.003C40.3147 101.695 39.0606 100.641 37.6134 99.9325C36.1662 99.2229 34.5695 98.8795 32.9612 98.9308C30.8239 98.9379 30.4738 99.0873 26.9591 101.159C24.5168 102.527 22.6082 104.692 21.5469 107.297C20.4857 109.903 20.3345 112.795 21.1184 115.499C22.4288 120.022 25.4291 122.665 30.0332 123.356ZM31.4931 106.086C31.6863 106.346 31.8793 106.59 32.066 106.831C32.6296 107.467 33.0916 108.188 33.4356 108.968C33.8303 110.059 33.9134 111.24 33.6752 112.377C33.4679 112.932 33.0586 113.386 32.5304 113.648C31.8288 114.105 30.9879 114.294 30.16 114.182C29.7343 114.067 28.4395 113.715 28.5278 111.157C28.6224 108.422 29.4898 106.917 31.4938 106.082L31.4931 106.086Z" fill="black"/>
</g>
<defs>
<clipPath id="clip0">
<rect width="85" height="124" fill="white" transform="translate(0.777344)"/>
</clipPath>
</defs>
</svg>

<svg xmlns="http://www.w3.org/2000/svg" width="86" height="124" fill="none" viewBox="0 0 86 124"><g fill="#000" clip-path="url(#a)"><path d="M66.941 6.8A49.23 49.23 0 0 0 41.411.546a57.3 57.3 0 0 0-22.693 3.935c-6.697 2.686-11.6 6.322-14.986 11.114a15.1 15.1 0 0 0-2.31 5.68c-.45 2.287.37 3.955 2.254 4.577 2.182.72 3.562-.694 4.73-2.33l.416-.583c1.296-1.831 2.636-3.724 4.327-4.985a36.6 36.6 0 0 1 8.47-4.674c6.457-2.516 13.598-3.324 22.474-2.538 6.147.544 11.338 1.971 15.87 4.364 6.477 3.418 10.606 7.757 12.622 13.262 2.854 7.8 1.28 14.059-4.68 18.602a97 97 0 0 1-10.646 6.722l-.172.098c-1.783 1.021-3.678 1.933-5.512 2.815-1.288.62-2.62 1.263-3.912 1.94-8.87 4.651-14.969 10.794-18.644 18.778a23.6 23.6 0 0 0-1.977 6.142 12.1 12.1 0 0 0 .205 4.893 12 12 0 0 0 2.132 4.401c.998 1.333 2.027 1.619 2.714 1.623h.02a3.1 3.1 0 0 0 2.436-1.359q.797-1.025 1.61-2.041c1.425-1.797 2.898-3.655 4.193-5.603 4.046-6.095 9.55-11.071 17.318-15.662a162 162 0 0 0 13.962-8.98 44 44 0 0 0 8.43-8.14c5.111-6.535 6.802-13.996 5.024-22.176-2.203-10.115-8.307-18.06-18.145-23.62M30.033 123.356q.827.124 1.663.123a12.7 12.7 0 0 0 7.476-2.548 12.88 12.88 0 0 0 4.566-6.489c.486-1.97.516-4.026.087-6.01a13.3 13.3 0 0 0-2.557-5.429 9.9 9.9 0 0 0-3.655-3.07 9.85 9.85 0 0 0-4.652-1.002c-2.137.007-2.487.156-6.002 2.228a12.4 12.4 0 0 0-5.412 6.138 12.5 12.5 0 0 0-.429 8.202c1.31 4.523 4.311 7.166 8.915 7.857m1.46-17.27c.193.26.386.504.573.745a8.2 8.2 0 0 1 1.37 2.137 6.25 6.25 0 0 1 .24 3.409 2.33 2.33 0 0 1-1.146 1.271 3.5 3.5 0 0 1-2.37.534c-.426-.115-1.72-.467-1.632-3.025.094-2.735.962-4.24 2.966-5.075z"/></g><defs><clipPath id="a"><path fill="#fff" d="M.777 0h85v124h-85z"/></clipPath></defs></svg>
